src/icons/video-list.svg

<svg width="512px" height="512px" viewBox="0 0 512 512" version="1.1" xmlns="http://www.w3.org/2000/svg" xmlns:xlink="http://www.w3.org/1999/xlink">
    <g fill-rule="evenodd">
        <path d="M419,37 L419,475 L93,475 L93,37 L419,37 Z M372,340.918367 L140,340.918367 L140,430.306122 L372,430.306122 L372,340.918367 Z M372,211.306122 L140,211.306122 L140,300.693878 L372,300.693878 L372,211.306122 Z M372,81.6938776 L140,81.6938776 L140,171.081633 L372,171.081633 L372,81.6938776 Z"></path>
    </g>
</svg>

<svg xmlns="http://www.w3.org/2000/svg" width="512" height="512" viewBox="0 0 512 512">
    <path fill-rule="evenodd" d="M419 37v438H93V37h326zm-47 303.918H140v89.388h232v-89.388zm0-129.612H140v89.388h232v-89.388zm0-129.612H140v89.388h232V81.694z"/>
</svg>
